X:392
T:La Morettina
Z:J.C. Battilani
Z:Jack Campin, http://www.campin.me.uk/
F:Jack Campin's Nine-Note Tunebook
% last edit 03-02-2013
M:2/4
L:1/16
Q:1/4=140
K:F %Transposed from G
  C2|F2A2  G2F2|F2 E4  F2|G2A2 B2c2|   B2 A4
  c2|c2dc  B2A2|A2 G4  A2|B2cB A2G2|[1 G2 F4:|\
                                    [2 F4   ||
F2A2|c=Bcd cBcd|c2A2 d2c2|B2G2 c2B2|   A2F2
F2A2|c=Bcd cBcd|c2A2 d2c2|B2G2 cBAG|   F4   :|

